X: 09105
T: SID'S HORNPIPE
C: Bob McQuillen 19 Oct 92
B: Bob's Note Book 9 p.105
R: hornpipe, reel
Z: 2017 John Chambers <jc:trillian.mit.edu>
L: 1/8
M: C
K: D
FG |\
A2AF GBAG | FAdc d2AF | GBed cABc | dfdB AGFG |
A2AF GBAG | FAde dAFD | GBed cABc | d2f2 d2 :|
|: AB |\
cdec A2gf | efec A2cB | ABcd efga | bagf egfe |
d2dA FDFA | B2BG Bded | cedB Aceg | f2d2 d2 :|
%%begintext align
%% Plainfield, VT lies about
%% 10 miles northeast of Montpelier and, unless he's moved,
%% that's where Sid Blum lives. Sid's good at many
%% things: he's a good sound man, a fine fiddler, and he's
%% excellent on the button box. I always enjoy it when
%% circumstance brings us together - we've played a lot
%% of music and I hope in continues. All the best to you, Sid.
%%endtext

%%sep 1 1 500

%%sep 1 1 500

